X:1
T:Gnoissienne no. 1 for Flute and Harp
T:Gnossienne no. 1 for Flute and Harp
T:Satie 
C:Satie
%%score 1 { ( 2 3 ) | ( 4 5 ) }
L:1/8
Q:1/4=95
M:4/4
K:Ab
V:1 treble nm="Flute" snm="Fl."
V:2 treble nm="Harp" snm="Hrp."
V:3 treble 
V:4 bass 
V:5 bass 
V:1
!p! z2 (ce =d2 c2 |{/c} =B4{/c} B4) | z2 (ce =d2 c2 |{/=e} f4{/e} f4) | z2 (ce =d2 c2 | %5
{/c} =B4{/A} G4 |{/F} G2{/F} G4-) G z |!f!{/A} G2{/G} F2- F4- | F8 |!p! z2 (ce =d2 c2 | %10
{/c} =B4{/c} B4) | z2 (ce =d2 c2 |{/=e} f4{/e} f4) | z2 (ce =d2 c2 |{/c} =B4{/A} G4 | %15
{/F} G2{/F} G4-) G z |{/A} G2{/G} F2- F4- | F8 |!f!{/A} (B4{/A} G4 |{/A} B4{/A} G4 | %20
{/A} G2{/G} F2- F4- | F8) |!f!{/A} (B4{/A} G4 |{/A} B4{/A} G4 |{/A} G2{/G} F2- F4- | F8) | %26
 z (c=d=e fg=bg | f2{/g} f2- f4 |{/g} f4{/f} =e4 |{/d} c4{/c} =B4 |{/A} G2{/G} F2-) F4- | F8 | %32
 z (c=d=e fg=bg | f2{/g} f2- f4 |{/g} f4{/f} =e4 |{/d} c4{/c} =B4 |{/A} G2{/G} F2-) F4- | F8 | %38
!f!{/A} (B4{/A} G4 |{/A} B4{/A} G4 |{/A} G2{/G} F2- F4- | F8) |{/A} (B4{/A} G4 |{/A} B4{/A} G4 | %44
{/A} G2{/G} F2- F4- | F8) |!p! z2 (ce =d2 c2 |{/c} =B8) | z2 (ce =d2 c2 |{/=e} f8) | %50
 z2 (ce =d2 c2 |{/c} =B8) | z2 (ce =d2 c2 |{/=e} f8) |{/A} (B4{/A} G4 |{/A} B4{/A} G4 | %56
{/A} G2{/G} F2- F4- | F8) |{/A} (B4{/A} G4 |{/A} B4{/A} G4 |{/A} G2{/G} F2- F4- | F8) | %62
 z (c=d=e fg=bg | f2{/g} f2- f4 |{/g} f4{/f} =e4 |{/d} c4{/c} =B4 |{/A} G2{/G} F2-) F4- | F8 | %68
 z (c=d=e fg=bg | f2{/g} f2- f4 |{/g} f4{/f} =e4 |{/d} c4{/c} =B4 |{/A} G2{/G} F2-) F4- | F8 | %74
!f!{/A} (B4{/A} G4 |{/A} B4{/A} G4 |{/A} G2{/G} F2- F4- | F8) |{/A} (B4{/A} G4 |{/A} B4{/A} G4 | %80
{/A} G2{/G} F2-) F4 |] %81
V:2
!p! x8 | x8 | x8 | x8 | x8 | x8 | z8 |!f! x8 | x8 |!p! x8 | x8 | x8 | x8 | x8 | x8 | z8 | x8 | x8 | %18
!f! x8 | x8 | x8 | x8 |!f! x8 | x8 | x8 | x8 | x8 | x8 | x8 | x8 | x8 | x8 | x8 | x8 | x8 | x8 | %36
 x8 | x8 |!f! x8 | x8 | x8 | x8 | x8 | x8 | x8 | x8 |!p! x8 | x8 | x8 | x8 | x8 | x8 | x8 | x8 | %54
 x8 | x8 | x8 | x8 | x8 | x8 | x8 | x8 | x8 | x8 | x8 | x8 | x8 | x8 | x8 | x8 | x8 | x8 | x8 | %73
 x8 |!f! x8 | x8 | x8 | x8 | x8 | x8 | x8 |] %81
V:3
 z2 [CF]4 [CF]2 | z2 [CF]4 [CF]2 | z2 [CF]4 [CF]2 | z2 [CF]4 [CF]2 | z2 [CF]4 [CF]2 | %5
 z2 [CF]4 [CF]2 | x8 | z2 [CF]4 [CF]2 | z2 [CF]4 [CF]2 | z2 [CF]4 [CF]2 | z2 [CF]4 [CF]2 | %11
 z2 [CF]4 [CF]2 | z2 [CF]4 [CF]2 | z2 [CF]4 [CF]2 | z2 [CF]4 [CF]2 | x8 | z2 [CF]4 [CF]2 | %17
 z2 [CF]4 [CF]2 | z2 D4 D2 | z2 D4 D2 | z2 [CF]4 [CF]2 | z2 [CF]4 [CF]2 | z2 D4 D2 | z2 D4 D2 | %24
 z2 [CF]4 [CF]2 | z2 [CF]4 [CF]2 | z2 [CF]4 [CF]2 | z2 [CF]4 [CF]2 | z2 [CF]4 [CF]2 | %29
 z2 [CF]4 [CF]2 | z2 [CF]4 [CF]2 | z2 [CF]4 [CF]2 | z2 [CF]4 [CF]2 | z2 [CF]4 [CF]2 | %34
 z2 [CF]4 [CF]2 | z2 [CF]4 [CF]2 | z2 [CF]4 [CF]2 | z2 [CF]4 [CF]2 | z2 D4 D2 | z2 D4 D2 | %40
 z2 [CF]4 [CF]2 | z2 [CF]4 [CF]2 | z2 D4 D2 | z2 D4 D2 | z2 [CF]4 [CF]2 | z2 [CF]4 [CF]2 | %46
 z2 [CF]4 [CF]2 | z2 [CF]4 [CF]2 | z2 [CF]4 [CF]2 | z2 [CF]4 [CF]2 | z2 [CF]4 [CF]2 | %51
 z2 [CF]4 [CF]2 | z2 [CF]4 [CF]2 | z2 [CF]4 [CF]2 | z2 D4 D2 | z2 D4 D2 | z2 [CF]4 [CF]2 | %57
 z2 [CF]4 [CF]2 | z2 D4 D2 | z2 D4 D2 | z2 [CF]4 [CF]2 | z2 [CF]4 [CF]2 | z2 [CF]4 [CF]2 | %63
 z2 [CF]4 [CF]2 | z2 [CF]4 [CF]2 | z2 [CF]4 [CF]2 | z2 [CF]4 [CF]2 | z2 [CF]4 [CF]2 | %68
 z2 [CF]4 [CF]2 | z2 [CF]4 [CF]2 | z2 [CF]4 [CF]2 | z2 [CF]4 [CF]2 | z2 [CF]4 [CF]2 | %73
 z2 [CF]4 [CF]2 | z2 D4 D2 | z2 D4 D2 | z2 [CF]4 [CF]2 | z2 [CF]4 [CF]2 | z2 D4 D2 | z2 D4 D2 | %80
 z2 [CF]4- [CF]2 |] %81
V:4
 [F,,,F,,]8 | [F,,,F,,]8 | [F,,,F,,]8 | [F,,,F,,]8 | [F,,,F,,]8 | [F,,,F,,]8 | [C,,C,]8 | %7
 [F,,,F,,]8 | [F,,,F,,]8 | [F,,,F,,]8 | [F,,,F,,]8 | [F,,,F,,]8 | [F,,,F,,]8 | [F,,,F,,]8 | %14
 [F,,,F,,]8 | [C,,C,]8 | [F,,,F,,]8 | [F,,,F,,]8 | [B,,,B,,]8 | [B,,,B,,]8 | [F,,,F,,]8 | %21
 [F,,,F,,]8 | [B,,,B,,]8 | [B,,,B,,]8 | [F,,,F,,]8 | [F,,,F,,]8 | [F,,,F,,]8 | [F,,,F,,]8 | %28
 [F,,,F,,]8 | [F,,,F,,]8 | [F,,,F,,]8 | [F,,,F,,]8 | [F,,,F,,]8 | [F,,,F,,]8 | [F,,,F,,]8 | %35
 [F,,,F,,]8 | [F,,,F,,]8 | [F,,,F,,]8 | [B,,,B,,]8 | [B,,,B,,]8 | [F,,,F,,]8 | [F,,,F,,]8 | %42
 [B,,,B,,]8 | [B,,,B,,]8 | [F,,,F,,]8 | [F,,,F,,]8 | [F,,,F,,]8 | [F,,,F,,]8 | [F,,,F,,]8 | %49
 [F,,,F,,]8 | [F,,,F,,]8 | [F,,,F,,]8 | [F,,,F,,]8 | [F,,,F,,]8 | [B,,,B,,]8 | [B,,,B,,]8 | %56
 [F,,,F,,]8 | [F,,,F,,]8 | [B,,,B,,]8 | [B,,,B,,]8 | [F,,,F,,]8 | [F,,,F,,]8 | [F,,,F,,]8 | %63
 [F,,,F,,]8 | [F,,,F,,]8 | [F,,,F,,]8 | [F,,,F,,]8 | [F,,,F,,]8 | [F,,,F,,]8 | [F,,,F,,]8 | %70
 [F,,,F,,]8 | [F,,,F,,]8 | [F,,,F,,]8 | [F,,,F,,]8 | [B,,,B,,]8 | [B,,,B,,]8 | [F,,,F,,]8 | %77
 [F,,,F,,]8 | [B,,,B,,]8 | [B,,,B,,]8 | [F,,,F,,]8 |] %81
V:5
 z2 A,4 A,2 | z2 A,4 A,2 | z2 A,4 A,2 | z2 A,4 A,2 | z2 A,4 A,2 | z2 A,4 A,2 | %6
 z2 [E,G,C]4 [E,G,C]2 | z2 A,4 A,2 | z2 A,4 A,2 | z2 A,4 A,2 | z2 A,4 A,2 | z2 A,4 A,2 | %12
 z2 A,4 A,2 | z2 A,4 A,2 | z2 A,4 A,2 | z2 [E,G,C]4 [E,G,C]2 | z2 A,4 A,2 | z2 A,4 A,2 | %18
 z2 [F,B,]4 [F,B,]2 | z2 [F,B,]4 [F,B,]2 | z2 A,4 A,2 | z2 A,4 A,2 | z2 [F,B,]4 [F,B,]2 | %23
 z2 [F,B,]4 [F,B,]2 | z2 A,4 A,2 | z2 A,4 A,2 | z2 A,4 A,2 | z2 A,4 A,2 | z2 A,4 A,2 | z2 A,4 A,2 | %30
 z2 A,4 A,2 | z2 A,4 A,2 | z2 A,4 A,2 | z2 A,4 A,2 | z2 A,4 A,2 | z2 A,4 A,2 | z2 A,4 A,2 | %37
 z2 A,4 A,2 | z2 [F,B,]4 [F,B,]2 | z2 [F,B,]4 [F,B,]2 | z2 A,4 A,2 | z2 A,4 A,2 | %42
 z2 [F,B,]4 [F,B,]2 | z2 [F,B,]4 [F,B,]2 | z2 A,4 A,2 | z2 A,4 A,2 | z2 A,4 A,2 | z2 A,4 A,2 | %48
 z2 A,4 A,2 | z2 A,4 A,2 | z2 A,4 A,2 | z2 A,4 A,2 | z2 A,4 A,2 | z2 A,4 A,2 | z2 [F,B,]4 [F,B,]2 | %55
 z2 [F,B,]4 [F,B,]2 | z2 A,4 A,2 | z2 A,4 A,2 | z2 [F,B,]4 [F,B,]2 | z2 [F,B,]4 [F,B,]2 | %60
 z2 A,4 A,2 | z2 A,4 A,2 | z2 A,4 A,2 | z2 A,4 A,2 | z2 A,4 A,2 | z2 A,4 A,2 | z2 A,4 A,2 | %67
 z2 A,4 A,2 | z2 A,4 A,2 | z2 A,4 A,2 | z2 A,4 A,2 | z2 A,4 A,2 | z2 A,4 A,2 | z2 A,4 A,2 | %74
 z2 [F,B,]4 [F,B,]2 | z2 [F,B,]4 [F,B,]2 | z2 A,4 A,2 | z2 A,4 A,2 | z2 [F,B,]4 [F,B,]2 | %79
 z2 [F,B,]4 [F,B,]2 | z2 A,4- A,2 |] %81

